assets/img/braze_icons/marker-pin-04.svg

<svg fill="none" height="24" viewBox="0 0 24 24" width="24" xmlns="http://www.w3.org/2000/svg"><g fill="#801ed7"><path clip-rule="evenodd" d="m5 8c0-3.86599 3.13401-7 7-7 3.866 0 7 3.13401 7 7 0 2.4418-1.3689 4.1882-2.7162 5.5915-.3255.3391-.661.6689-.9824.9851l-.0426.0418c-.3383.3328-.6603.6504-.9631.9695-.6097.6426-1.0923 1.2413-1.4013 1.8593-.1694.3388-.5156.5528-.8944.5528s-.725-.214-.8944-.5528c-.309-.618-.7916-1.2167-1.40131-1.8593-.30277-.3191-.62482-.6367-.96312-.9695l-.0426-.0419c-.32144-.3161-.65686-.6459-.98242-.985-1.34728-1.4033-2.71615-3.1497-2.71615-5.5915zm9 0c0 1.10457-.8954 2-2 2s-2-.89543-2-2 .8954-2 2-2 2 .89543 2 2z" fill-rule="evenodd"/><path d="m5.40361 15.2013c.50531-.2229.73423-.8132.51132-1.3185s-.81324-.7343-1.31854-.5113c-1.0029.4424-1.87723.9975-2.51445 1.6659-.64211.6735-1.08194 1.5077-1.08194 2.4626 0 1.8813 1.64633 3.2514 3.51857 4.0939 1.96611.8848 4.61209 1.4061 7.48143 1.4061 2.8693 0 5.5153-.5213 7.4814-1.4061 1.8723-.8425 3.5186-2.2126 3.5186-4.0939 0-.9549-.4398-1.7891-1.0819-2.4626-.6373-.6684-1.5116-1.2235-2.5145-1.6659-.5053-.223-1.0956.006-1.3185.5113s.006 1.0956.5113 1.3185c.8484.3743 1.4741.7966 1.8741 1.2161.395.4144.5295.7787.5295 1.0826 0 .6041-.5923 1.4839-2.3393 2.2701-1.6532.7439-4.0072 1.2299-6.6607 1.2299-2.65351 0-5.00752-.486-6.6607-1.2299-1.74705-.7862-2.3393-1.666-2.3393-2.2701 0-.3039.13448-.6682.52954-1.0826.39994-.4195 1.02561-.8418 1.87407-1.2161z"/></g></svg>

<svg width="24" height="24" viewBox="0 0 24 24" fill="none" xmlns="http://www.w3.org/2000/svg">
<path fill-rule="evenodd" clip-rule="evenodd" d="M5 8C5 4.13401 8.13401 1 12 1C15.866 1 19 4.13401 19 8C19 10.4418 17.6311 12.1882 16.2838 13.5915C15.9583 13.9306 15.6228 14.2604 15.3014 14.5766L15.2588 14.6184C14.9205 14.9512 14.5985 15.2688 14.2957 15.5879C13.686 16.2305 13.2034 16.8292 12.8944 17.4472C12.725 17.786 12.3788 18 12 18C11.6212 18 11.275 17.786 11.1056 17.4472C10.7966 16.8292 10.314 16.2305 9.70429 15.5879C9.40152 15.2688 9.07947 14.9512 8.74117 14.6184L8.69857 14.5765C8.37713 14.2604 8.04171 13.9306 7.71615 13.5915C6.36887 12.1882 5 10.4418 5 8ZM14 8C14 9.10457 13.1046 10 12 10C10.8954 10 10 9.10457 10 8C10 6.89543 10.8954 6 12 6C13.1046 6 14 6.89543 14 8Z" fill="#801ED7"/>
<path d="M5.40361 15.2013C5.90892 14.9784 6.13784 14.3881 5.91493 13.8828C5.69202 13.3775 5.10169 13.1485 4.59639 13.3715C3.59349 13.8139 2.71916 14.369 2.08194 15.0374C1.43983 15.7109 1 16.5451 1 17.5C1 19.3813 2.64633 20.7514 4.51857 21.5939C6.48468 22.4787 9.13066 23 12 23C14.8693 23 17.5153 22.4787 19.4814 21.5939C21.3537 20.7514 23 19.3813 23 17.5C23 16.5451 22.5602 15.7109 21.9181 15.0374C21.2808 14.369 20.4065 13.8139 19.4036 13.3715C18.8983 13.1485 18.308 13.3775 18.0851 13.8828C17.8622 14.3881 18.0911 14.9784 18.5964 15.2013C19.4448 15.5756 20.0705 15.9979 20.4705 16.4174C20.8655 16.8318 21 17.1961 21 17.5C21 18.1041 20.4077 18.9839 18.6607 19.7701C17.0075 20.514 14.6535 21 12 21C9.34649 21 6.99248 20.514 5.3393 19.7701C3.59225 18.9839 3 18.1041 3 17.5C3 17.1961 3.13448 16.8318 3.52954 16.4174C3.92948 15.9979 4.55515 15.5756 5.40361 15.2013Z" fill="#801ED7"/>
</svg>
